icons/op-copy-documents-24.svg

<svg width="24" height="24" viewBox="0 0 24 24" fill="none" xmlns="http://www.w3.org/2000/svg">
<path fill-rule="evenodd" clip-rule="evenodd" d="M8.23077 16.8V4H14.3769L19 8.5791V16.8H8.23077ZM9.30769 15.7333H17.9231V10.1333H12.8077V5.06667H9.30769V15.7333ZM13.8846 9.06667H17.9231V9.0209L13.9308 5.06667H13.8846V9.06667Z" fill="black"/>
<path d="M14.9615 17.8667H16.0385V20H5V6.93333H7.15385V8H6.07692V18.9333H14.9615V17.8667Z" fill="black"/>
</svg>

<svg xmlns="http://www.w3.org/2000/svg" width="24" height="24" viewBox="0 0 24 24"><path d="M8.231 16.8V4h6.146L19 8.579V16.8Zm1.077-1.067h8.615v-5.6h-5.115V5.067h-3.5Zm4.577-6.666h4.038v-.046l-3.992-3.954h-.046Z"/><path d="M14.961 17.867h1.077V20H5V6.933h2.154V8H6.077v10.933h8.884v-1.066Z"/></svg>
